X:1
T:Slavonic Dance No. 8 (theme)
C:Antonín Dvořák
M:3/4
L:1/8
Q:3/4=168
K:Gm
% A section — furiant theme, Op. 46 No. 8
D2 | (3GBd (3GBd G2 | d4 c2 | B2 G2 E2 | D6 |
(3GBd (3GBd G2 | d2 c2 B2 | A2 ^F2 G2 | G6 |
d2 d2 c2 | B2 B2 A2 | G2 B2 d2 | c4 A2 |
(3GBd (3GBd G2 | d2 c2 B2 | G2 A2 ^F2 | G4 |]
